packages/icons/svg/Fill/star.svg

<svg width="24" height="24" viewBox="0 0 24 24" fill="none" xmlns="http://www.w3.org/2000/svg">
<g id="Icon/Fill/star">
<path id="Mask" fill-rule="evenodd" clip-rule="evenodd" d="M17.5616 21.0007C17.4036 21.0007 17.2446 20.9637 17.0986 20.8877L11.9996 18.2237L6.90162 20.8877C6.56362 21.0627 6.15562 21.0327 5.84962 20.8087C5.54162 20.5847 5.38862 20.2057 5.45362 19.8307L6.42462 14.2027L2.30462 10.2177C2.03062 9.95272 1.93162 9.55472 2.04862 9.19072C2.16562 8.82872 2.47862 8.56372 2.85662 8.50972L8.55662 7.68172L11.1046 2.55572C11.4426 1.87572 12.5576 1.87572 12.8956 2.55572L15.4436 7.68172L21.1436 8.50972C21.5216 8.56372 21.8346 8.82872 21.9516 9.19072C22.0686 9.55472 21.9696 9.95272 21.6956 10.2177L17.5756 14.2027L18.5466 19.8307C18.6116 20.2057 18.4576 20.5847 18.1506 20.8087C17.9766 20.9367 17.7696 21.0007 17.5616 21.0007Z" fill="#000000"/>
</g>
</svg>

<svg fill="none" height="24" viewBox="0 0 24 24" width="24" xmlns="http://www.w3.org/2000/svg"><path clip-rule="evenodd" d="m17.5616 21.0007c-.158 0-.317-.037-.463-.113l-5.099-2.664-5.09802 2.664c-.338.175-.746.145-1.052-.079-.308-.224-.461-.603-.396-.978l.971-5.628-4.12-3.985c-.274-.26505-.373-.66305-.256-1.02705.117-.362.43-.627.808-.681l5.7-.828 2.54802-5.126c.338-.68 1.453-.68 1.791 0l2.548 5.126 5.7.828c.378.054.691.319.808.681.117.364.018.762-.256 1.02705l-4.12 3.985.971 5.628c.065.375-.089.754-.396.978-.174.128-.381.192-.589.192" fill="#6b7280" fill-rule="evenodd"/></svg>
